X:1
T:Requiem for a Dream HARD
T:Requiem for a Dream HARD
T:Composed by: Clint Mansell 
T:Arr. by: Fabian Fehl 
C:Clint Mansell
Z:Fabian Fehl
%%score { 1 | 2 }
L:1/8
Q:1/4=70
M:4/4
K:Bb
V:1 treble nm="Piano" snm="Pno."
V:2 bass 
V:1
!p! z8 |:!mf! z8 | z8 :| BAGD BAGD |!<(! BAGD cBAB!<)! | BAGD BAGD | BAGD cBAB | BAGD BAGD | %8
 BAGD cBAG | [Bb]A[GBb]D [Bb]A[GBb]D | [Aa]A[GAa]D [cc']B[Acc']B | [Bb]A[GBb]D [Bb]A[GBb]D | %12
 [Aa]A[GAa]D [cc']B[Acc']B | [Bb][Add'][Gb]D [Bb][Add'][Gb]D | [Aa][Add'][Ga]D [cc'][Bdd'][Ac']B | %15
 [Bb][Add'][Gb]D [Bb][Add'][Gb]D | [Aa][Add'][Ga]D [cc'][Bdd'][Ac']B | %17
!ff! [Bb] [Gg]2 [Bb]/[Gg]/ [Bb]/[Gg]/[dd'] [Bb][Bb]/[Gg]/ | %18
 [Bb]/[Gg]/[dd'] [Bb][Bb]/[Gg]/ [Bb]/[Gg]/[Bb]/[Gg]/ [Bb]/[Gg]/[Bb]/[Gg]/ | %19
 [Bb]/[Aa]/[dd'] [Bb][Bb]/[Aa]/ [Bb]/[Aa]/[dd'] [Bb][Bb]/[Aa]/ | %20
 [Bb]/[Aa]/[dd'] [Bb][Bb]/[Aa]/ [Bb]/[Aa]/[Bb]/[Aa]/ [Bb]/[Aa]/[Bb]/[Aa]/ | %21
 [Bdb][Ada] [Gdg][Bb]/[Bb]/ [Bdb]/[Ada]/[Ada]/[Ada]/ [Gdg][Bb]/[Bb]/ | %22
 [Beb]/[Aea]/[Aea]/[Aea]/ [Geg][Gg]/[Gg]/ [Gdg]/[Ada]/[Ada]/[Ada]/ [Ada]/[Bdb]/[Bdb]/[Bdb]/ | %23
 [Bdb][Ada] [Gdg][Bb]/[Bb]/ [Bdb]/[Ada]/[Ada]/[Ada]/ [Gdg][Bb]/[Bb]/ | %24
"^rit."[Q:1/4=70] [Beb]/[Q:1/4=67]"^.5"[Aea]/[Q:1/4=65][Aea]/[Q:1/4=62]"^.5"[Aea]/[Q:1/4=60] [Geg][Q:1/4=55][Gg]/[Q:1/4=52]"^.5"[Gg]/[Q:1/4=50] [Gdg]/[Q:1/4=47]"^.5"[Ada]/[Q:1/4=45][Ada]/[Q:1/4=42]"^.5"[Ada]/[Q:1/4=40] [Ada]/[Q:1/4=37]"^.5"[Bdb]/[Q:1/4=35][Bdb]/[Q:1/4=32]"^.5"[Bdb]/[Q:1/4=57]"^.5" | %25
[Q:1/4=70]!mf! [Bb]A[GBb]D [Bb]A[GBb]D | [Aa]A[GAa]D [cc']B[Acc']B | [Bb]A[GBb]D [Bb]A[GBb]D | %28
!<(! [Aa]A[GAa]D cBAB!<)! |!ff! [Bdgb][dgbd'][Bdgb] z [Bdgb][dgbd'][Bdgb] z | %30
 [Ada][dd'][Ada] z [cc'][dd'][cc'] z |!ff! [Bdgb][dgbd'][Bdgb] z [Bdgb][dgbd'][Bdgb] z | %32
!<(! [Ada][dd'][Ada] z [cc'][dd'][cc'] z!<)! | %33
!fff! [Bb] [Gg]2 [Bb]/[Gg]/ [Bb]/[Gg]/[dd'] [Bb][Bb]/[Gg]/ | %34
 [Bb]/[Gg]/[dd'] [Bb][Bb]/[Gg]/ [Bb]/[Gg]/[Bb]/[Gg]/ [Bb]/[Gg]/[Bb]/[Gg]/ | %35
 [Bb]/[Aa]/[dd'] [Bb][Bb]/[Aa]/ [Bb]/[Aa]/[dd'] [Bb][Bb]/[Aa]/ | %36
"^rit."[Q:1/4=70] [Bb]/[Q:1/4=67]"^.5"[Aa]/[Q:1/4=65][dd'][Q:1/4=60] [Bb][Q:1/4=55][Bb]/[Q:1/4=52]"^.5"[Aa]/[Q:1/4=50] [Bb]/[Q:1/4=47]"^.5"[Aa]/[Q:1/4=45][Bb]/[Q:1/4=42]"^.5"[Aa]/[Q:1/4=40] [Bb]/[Q:1/4=37]"^.5"[Aa]/[Q:1/4=35][Bb]/[Aa]/ | %37
[Q:1/4=70]!mp! BAGD BAGD | BAGD cBAB | BAGD BAGD | %40
"^rit."[Q:1/4=70] F[Q:1/4=65]G[Q:1/4=60]F[Q:1/4=55]D[Q:1/4=50] c[Q:1/4=45]B[Q:1/4=40]A[Q:1/4=35]B | %41
[Q:1/4=30] [DG]8 |] z8 | z8 | z8 | z8 | z8 | z8 | z8 | z8 | z8 | z8 | z8 | z8 | z8 | z8 | %56
 z z z2 z4 | z8 | z8 | z8 | %60
V:2
 [G,,,G,,]8 |: [G,,G,]8 | [E,,E,]4 [D,,D,]4 :| [G,,G,]8 | [E,,E,]4 [D,,D,]4 | [G,,G,]8 | %6
 [E,,E,]4 [D,,D,]4 | [G,,G,]8 | [E,,E,]4 [D,,D,]4 | [G,,G,]8 | [E,,E,]4 [D,,D,]4 | [G,,G,]8 | %12
 [E,,E,]4 [D,,D,]4 | [G,,G,]8 | [E,,E,]4 [D,,D,]4 | [G,,G,]8 | [E,,E,]4 [D,,D,]4 | %17
 [G,,G,]2 [D,G,B,]2 [G,,G,]2 [D,G,B,]2 | [E,,E,]2 [E,G,B,E]2 [D,,D,]2 [D,^F,A,D]2 | %19
 [G,,G,]2 [D,G,B,]2 [G,,G,]2 [D,G,B,]2 | [E,,E,]2 [E,G,B,E]2 [D,,D,]2 [D,^F,A,D]2 | %21
 [G,,G,]/[G,,G,]/ z [D,G,B,]/[D,G,B,]/ z [G,,G,]/[G,,G,]/[G,,G,]/[G,,G,]/ [D,G,B,]/[D,G,B,]/ z | %22
 [E,,E,]/[E,,E,]/[E,,E,]/[E,,E,]/ [E,G,B,E]/[E,G,B,E]/ z [D,,D,]/[D,,D,]/[D,,D,]/[D,,D,]/ [D,^F,A,D]/[D,F,A,D]/[D,F,A,D]/[D,F,A,D]/ | %23
 [G,,G,]/[G,,G,]/ z [D,G,B,]/[D,G,B,]/ z [G,,G,]/[G,,G,]/[G,,G,]/[G,,G,]/ [D,G,B,]/[D,G,B,]/ z | %24
 [E,,E,]/[E,,E,]/[E,,E,]/[E,,E,]/ [E,G,B,E]/[E,G,B,E]/ z [D,,D,]/[D,,D,]/[D,,D,]/[D,,D,]/ [D,^F,A,D]/[D,F,A,D]/[D,F,A,D]/[D,F,A,D]/ | %25
 [G,,G,]8 | [E,,E,]4 [D,,D,]4 | [G,,G,]8 | [E,,E,]4 [D,,A,,D,][D,,A,,D,][D,,A,,D,][D,,A,,D,] | %29
 [G,,G,]2 [D,G,B,]2 [G,,G,]2 [D,G,B,]2 | [E,,E,]2 [E,G,B,E]2 [D,,D,]2 [D,^F,A,D]2 | %31
 [G,,G,]2 [D,G,B,]2 [G,,G,]2 [D,G,B,]2 | [E,,E,]2 [E,G,B,E]2 [D,,D,]2 [D,^F,A,D]2 | %33
 [G,,,G,,]2 [G,,D,G,B,]2 [G,,,G,,]2 [G,,D,G,B,]2 | [E,,,E,,]2 [E,G,B,E]2 [D,,D,]2 [D,^F,A,D]2 | %35
 [G,,,G,,]2 [G,,D,G,B,]2 [G,,,G,,]2 [G,,D,G,B,]2 | [E,,,E,,]2 [E,G,B,E]2 [D,,D,]2 [D,^F,A,D]2 | %37
 [G,,,G,,]4 [G,,,G,,]3 [F,,,F,,] | [E,,,E,,]3 [E,,,E,,] [D,,,D,,]3 [F,,,F,,] | %39
 [G,,,G,,]4 [G,,,G,,]3 [F,,,F,,] | [E,,,E,,]3 [E,,,E,,] [D,,,D,,]3 [F,,,F,,] | [G,,B,,D,G,]8 |] %42
 z8 | z8 | z8 | z8 | z8 | z8 | z8 | z8 | z8 | z8 | z8 | z8 | z8 | z8 | z z z2 z4 | z8 | z8 | z8 | %60

